assets/images/menu.svg

<svg width="32" height="32" viewBox="0 0 32 32" fill="none" xmlns="http://www.w3.org/2000/svg">
<g clip-path="url(#clip0_162_795)">
<path d="M25.3333 16H21.848L22.568 10.2253C22.6938 9.64119 22.6879 9.03638 22.5506 8.45483C22.4134 7.87328 22.1484 7.32959 21.7748 6.86329C21.4012 6.39698 20.9284 6.01976 20.3908 5.75903C19.8531 5.4983 19.2642 5.36062 18.6667 5.35599H15.508C15.6533 4.32799 15.5653 2.67999 17.02 2.67332H21.3333C21.687 2.67332 22.0261 2.53284 22.2761 2.2828C22.5262 2.03275 22.6667 1.69361 22.6667 1.33999C22.6667 0.986364 22.5262 0.647226 22.2761 0.397177C22.0261 0.147129 21.687 0.00665283 21.3333 0.00665283H17.02C16.0455 0.00725274 15.1047 0.363609 14.3743 1.0088C13.6439 1.65399 13.1742 2.54363 13.0533 3.51065L12.8227 5.35599H4C3.4144 5.36227 2.83721 5.49617 2.30865 5.74835C1.7801 6.00054 1.31289 6.36495 0.939591 6.81619C0.56629 7.26742 0.295873 7.79463 0.147185 8.36108C-0.0015031 8.92752 -0.0248858 9.51958 0.0786664 10.096L2.096 26.1733C2.29999 27.7836 3.0839 29.2644 4.30097 30.3384C5.51804 31.4124 7.08482 32.0059 8.708 32.008L25.3333 31.992C26.2088 31.992 27.0757 31.8195 27.8846 31.4845C28.6934 31.1495 29.4283 30.6584 30.0474 30.0394C30.6664 29.4203 31.1575 28.6854 31.4925 27.8765C31.8276 27.0677 32 26.2008 32 25.3253V22.6667C32 21.7912 31.8276 20.9243 31.4925 20.1154C31.1575 19.3066 30.6664 18.5717 30.0474 17.9526C29.4283 17.3336 28.6934 16.8425 27.8846 16.5075C27.0757 16.1724 26.2088 16 25.3333 16ZM29.3333 22.6667H13.3333C13.3333 21.6058 13.7548 20.5884 14.5049 19.8382C15.2551 19.0881 16.2725 18.6667 17.3333 18.6667H25.3333C26.3942 18.6667 27.4116 19.0881 28.1618 19.8382C28.9119 20.5884 29.3333 21.6058 29.3333 22.6667ZM18.6667 8.02132C18.8773 8.02246 19.0848 8.07294 19.2724 8.16873C19.46 8.26452 19.6225 8.40294 19.747 8.5729C19.8714 8.74285 19.9543 8.93961 19.989 9.14738C20.0237 9.35515 20.0092 9.56816 19.9467 9.76932L19.8307 10.6667H14.844L15.1747 8.01865L18.6667 8.02132ZM2.96533 8.51999C3.08973 8.36502 3.2472 8.23981 3.42622 8.15353C3.60524 8.06725 3.80128 8.02208 4 8.02132H12.4893L12.1573 10.6667H2.832L2.69867 9.63999C2.65593 9.44527 2.65771 9.24341 2.70389 9.04948C2.75006 8.85555 2.83943 8.67455 2.96533 8.51999ZM4.74133 25.8427L3.168 13.3333H19.4973L19.1627 16H17.3333C15.5652 16 13.8695 16.7024 12.6193 17.9526C11.369 19.2029 10.6667 20.8985 10.6667 22.6667C10.6107 24.8453 10.5333 27.6533 12.048 29.3467H8.708C7.73346 29.3461 6.79266 28.9897 6.06228 28.3445C5.33189 27.6993 4.86218 26.8097 4.74133 25.8427ZM25.3333 29.3333H17.3333C16.2725 29.3333 15.2551 28.9119 14.5049 28.1617C13.7548 27.4116 13.3333 26.3942 13.3333 25.3333H18.2667C18.7827 25.5813 22.1 28.148 22.6667 28C23.2213 28.1573 26.5733 25.5693 27.0667 25.3333H29.3333C29.3333 26.3942 28.9119 27.4116 28.1618 28.1617C27.4116 28.9119 26.3942 29.3333 25.3333 29.3333Z" fill="#AC5FD9"/>
</g>
<defs>
<clipPath id="clip0_162_795">
<rect width="32" height="32" fill="white"/>
</clipPath>
</defs>
</svg>

<?xml version="1.0" encoding="UTF-8"?>
<svg id="Layer_1" xmlns="http://www.w3.org/2000/svg" version="1.1" viewBox="0 0 32 32">
  <!-- Generator: Adobe Illustrator 29.5.1, SVG Export Plug-In . SVG Version: 2.1.0 Build 141)  -->
  <defs>
    <style>
      .st0 {
        fill: #ac5fd9;
      }
    </style>
  </defs>
  <path class="st0" d="M25.33,16h-3.49l.72-5.77c.13-.58.12-1.19-.02-1.77-.14-.58-.4-1.13-.78-1.59-.37-.47-.85-.84-1.38-1.1-.54-.26-1.13-.4-1.72-.4h-3.16c.15-1.03.06-2.68,1.51-2.68h4.31c.35,0,.69-.14.94-.39.25-.25.39-.59.39-.94s-.14-.69-.39-.94c-.25-.25-.59-.39-.94-.39h-4.31c-.97,0-1.92.36-2.65,1-.73.65-1.2,1.53-1.32,2.5l-.23,1.85H4c-.59,0-1.16.14-1.69.39-.53.25-1,.62-1.37,1.07-.37.45-.64.98-.79,1.54-.15.57-.17,1.16-.07,1.73l2.02,16.08c.2,1.61.99,3.09,2.2,4.17s2.78,1.67,4.41,1.67l16.63-.02c.88,0,1.74-.17,2.55-.51.81-.34,1.54-.83,2.16-1.45.62-.62,1.11-1.35,1.45-2.16.34-.81.51-1.68.51-2.55v-2.66c0-.88-.17-1.74-.51-2.55-.34-.81-.83-1.54-1.45-2.16-.62-.62-1.35-1.11-2.16-1.45-.81-.34-1.68-.51-2.55-.51ZM29.33,22.67H13.33c0-1.06.42-2.08,1.17-2.83.75-.75,1.77-1.17,2.83-1.17h8c1.06,0,2.08.42,2.83,1.17.75.75,1.17,1.77,1.17,2.83ZM18.67,8.02c.21,0,.42.05.61.15s.35.23.47.4c.12.17.21.37.24.57s.02.42-.04.62l-.12.9h-4.99l.33-2.65h3.49ZM2.97,8.52c.12-.15.28-.28.46-.37.18-.09.38-.13.57-.13h8.49l-.33,2.65H2.83l-.13-1.03c-.04-.19-.04-.4,0-.59.05-.19.14-.37.26-.53ZM4.74,25.84l-1.57-12.51h16.33l-.33,2.67h-1.83c-1.77,0-3.46.7-4.71,1.95s-1.95,2.95-1.95,4.71c-.06,2.18-.13,4.99,1.38,6.68h-3.34c-.97,0-1.92-.36-2.65-1-.73-.65-1.2-1.53-1.32-2.5ZM25.33,29.33h-8c-1.06,0-2.08-.42-2.83-1.17-.75-.75-1.17-1.77-1.17-2.83h4.93c.52.25,3.83,2.81,4.4,2.67.55.16,3.91-2.43,4.4-2.67h2.27c0,1.06-.42,2.08-1.17,2.83s-1.77,1.17-2.83,1.17Z"/>
</svg>
